!!!COM: Bach, Johann Sebastian
!!!CDT: 1685/3//-1750/7/28/
!!!OTL@@DE: Ich dank' dir, lieber Herre
!!!AGN: 4-Part Chorale
!!!SCT: BH 272
!!!SCT: BWV 348
**harm	**root	**kern	**kern	**kern	**kern
!	!	!bass	!tenor	!alto	!soprno
*	*Iorgan	*Iorgan	*Iorgan	*Iorgan	*Iorgan
*M4/4	*M4/4	*M4/4	*M4/4	*M4/4	*M4/4
*met(c)	*met(c)	*met(c)	*met(c)	*met(c)	*met(c)
*MM60	*MM60	*MM60	*MM60	*MM60	*MM60
*k[b-]	*k[b-]	*k[b-]	*k[b-]	*k[b-]	*k[b-]
*F:	*F:	*F:	*F:	*F:	*F:
*>[A,B,B1,B,B2]	*>[A,B,B1,B,B2]	*>[A,B,B1,B,B2]	*>[A,B,B1,B,B2]	*>[A,B,B1,B,B2]	*>[A,B,B1,B,B2]
*>A	*>A	*>A	*>A	*>A	*>A
I	4BB-	8F	4A	4c	4f
.	.	8E	.	.	.
=1	=1	=1	=1	=1	=1
vi	4GG	4D	8A	4d	4f
.	.	.	8B-	.	.
V7b/IV	4BB-	4AA	4c	4e-	4f
=!|:	=!|:	=!|:	=!|:	=!|:	=!|:
*>B	*>B	*>B	*>B	*>B	*>B
IV	4EE-	4BB-	8B-	4d	4f
.	.	.	8A	.	.
Vb/V	4CC	4BB	4G	4d	4g
=2	=2	=2	=2	=2	=2
v	4FF	4C	4G	8d	4e-
.	.	.	.	4c	.
V7/V	4CC	4GG	4F	.	4d
.	.	.	.	8B	.
V;	4FF;	4CC;	4E;	4c;	4c;
Vb	4FF	4EE	4G	4c	4g
=3	=3	=3	=3	=3	=3
I	4BB-	4FF	8F	4c	4a
.	.	.	8E	.	.
V/V	4CC	4GG	4D	4B	4g
IVb/V	4BB-	4AA	4C	4c	4f
Vb/V	4CC	4BB	4G	[4G	8e
.	.	.	.	.	8d
=4	=4	=4	=4	=4	=4
I/V	4FF	4C	4G	8G]	4e
.	.	.	.	4c	.
V7/V	4CC	4GG	4F	.	4d
.	.	.	.	8B	.
I/V;	4FF;	4CC;	4E;	4G;	4c;
*>B1	*>B1	*>B1	*>B1	*>B1	*>B1
IVb/V	4BB-	4AA	4F	4c	4f
=1	=1	=1	=1	=1	=1
IV	4EE-	4BB-	8F	4d	4f
.	.	.	8G	.	.
I	4BB-	4FF	4A	4c	4f
=:|!	=:|!	=:|!	=:|!	=:|!	=:|!
*>B2	*>B2	*>B2	*>B2	*>B2	*>B2
IVb/V	8BB-	4AA	8A	8f	4cc
iii7	8DD	.	8G	8e	.
=5	=5	=5	=5	=5	=5
IVb	4EE-	4D	8F	4d	4b-
.	.	.	8G	.	.
I	4BB-	4F	8A	8c	4a
.	.	.	8B-	8d	.
V7d	4FF	4BB-	4c	4e	4g
Vb/IV	4BB-	4AA	4c	8f	4f
.	.	.	.	8e-	.
=6	=6	=6	=6	=6	=6
IV	4EE-	4BB-	2F	4d	8f
.	.	.	.	.	8g
I	4BB-	4FF	.	4c	4a
V;	4FF;	4C;	4E;	4c;	4g;
viiob/ii	4BB	4AA	4F#	4c	4a
!!linebreak: 2
=7	=7	=7	=7	=7	=7
ii	4CC	4GG	4.G	4B-	4b-
viio7b/IV	8DD	8C	.	8e-	4a
V/ii	8GG	8D	8F#	[8d	.
vb	4FF	4E-	4G	8d]	4g
.	.	.	.	8c	.
V/ii	4GG	4D	4A	4d	4f#
=8	=8	=8	=8	=8	=8
ii;	2.CC;	2.GG;	2.B-;	2.d;	2.g;
V7d	4FF	4BB-	4E	4G	4c
=9	=9	=9	=9	=9	=9
Ib	4BB-	4AA	4F	4c	4f
ii	4CC	4GG	4BB-	8d	4g
.	.	.	.	8e	.
I	4BB-	4FF	8C	4f	4a
.	.	.	8c	.	.
-viiob/iii	4CC	4GG	[4B-	8e	4b-
.	.	.	.	8d	.
=10	=10	=10	=10	=10	=10
iii	4DD	4AA	8B-]	4c	4cc
.	.	.	8A	.	.
iib	8CC	4BB-	8G	4d	8b-
IV7	8EE-	.	8F	.	8a
V;	4FF;	4C;	4c;	4e;	4g;
IVb	4EE-	4D	4F	4f	4b-
=11	=11	=11	=11	=11	=11
V7c/IV	4BB-	4C	[4F	4e-	4a
iib	4CC	2BB-	8F]	4d	4g
.	.	.	8G	.	.
V7d	4FF	.	4E	4c	4cc
Ib	8BB-	8AA	4F	8c	8f
ii7b	8CC	8BB-	.	8d	8g
=12	=12	=12	=12	=12	=12
Ic	4BB-	4C	4F	8c	4a
.	.	.	.	[8B-	.
V7	4FF	4CC	4E	8B-]	4g
.	.	.	.	8A	.
I;	4BB-;	4FF;	4C;	4A;	4f;
==	==	==	==	==	==
*-	*-	*-	*-	*-	*-
!!!ONB: m.10, b.4 changed from Ib to IVb
!!chor2scor: -l 2 -s 0.6 -o %b.pmx
!!!YEC: Copyright 1994, David Huron
!!!YEC: Changes/Additions 2001 by Craig Stuart Sapp
!!!YEN: United States of America
!!!SMA: 371 Bach Chorales, edited by Ludwig Erk, C.F. Peters
!!!PDT: 1850, 1865
!!!ONB: Harmony and Root analysis done manually
